X:26
T:Branle
R:Branle double
C:Claude Gervaise
H:
<end>
<start>
XV eme siecle
O:France
Z:S. Piron
P:AAB
Z:Transcrit et/ou corrig? par Michel BELLON - 2006-11-29
Z:Pour toute observation mailto:galouvielle@free.fr
M:4/4
L:1/4
Q:1/4=220
K:C
GG|c>d ec|d2cB|AcBG|A2:|
|:AA|c>B AA|d>c Bc|AGGF|G2:|
<end>
<start>
